# Region file format: DS9 version 4.0
# Filename: product/P0931790101EPX000OEXPMP8000.FIT 
# global color=green font="helvetica 12 bold" select=1 highlite=1 edit=1 move=1 delete=1 include=1 fixed=0 source
linear
polygon(210.95231456981378,54.03967233536448,210.94474758646615,54.04078716847316,210.93717890122028,54.040790436345155,210.92961021429002,54.040793228998936,210.9220415259396,54.04079554643428,210.9144735217144,54.04190847942604,210.90690462836375,54.0419098464799,210.89933573438532,54.04191073829538,210.89176691647185,54.04302224594047,210.88419781906708,54.04302218727652,210.8766280627785,54.045243835989226,210.86905802746185,54.04635391827445,210.8614875868074,54.0474635253214,210.8539176796857,54.04746156530483,210.84634663212984,54.048570221619116,210.83877517995353,54.04967840253813,210.83120332338876,54.05078610800287,210.8236310626677,54.051893337954375,210.8160564437744,54.05411118428975,210.80848317225053,54.05521746301505,210.80090713647587,54.057434358092486,210.79522332146146,54.05965226334747,210.80278851450876,54.062991188149006,210.8103549284293,54.06632964018176,210.81792446816536,54.06855652488227,210.82549482284662,54.07078293526261,210.83306449355592,54.07411996653569,210.83685048537484,54.075232756777204,210.82927710499948,54.07411815290889,210.82170774025062,54.070780883986934,210.81413759000606,54.068554235922484,210.80656825481685,54.066327113577046,210.7990021471376,54.06298842405179,210.79143464534448,54.06076035409312,210.78386514090616,54.059642902094346,210.77818011239634,54.06186000401092,210.7706044191707,54.062963903345384,210.76302494603286,54.065178418506115,210.75544466383454,54.06739245739288,210.7478597877895,54.07071711188739,210.74405717560796,54.07515699133114,210.74025374823086,54.0795967528622,210.73455536533083,54.084033986926386,210.7307501041664,54.08847345239486,210.72694402709362,54.0929127995946,210.7212423859366,54.09734940944794,210.71365398605917,54.09956082402429,210.70606477722794,54.10177176111534,210.69847475957988,54.10398222059819,210.69088393325214,54.10619220234999,210.68329229838193,54.10840170624782,210.67569412813663,54.11172182526363,210.66809474076877,54.11504146571208,210.66049413625336,54.11836062739572,210.65289231456555,54.12167931011704,210.6452892756806,54.124997513678565,210.63769852032496,54.126093054050074,210.6301351795167,54.12274375246892,210.62256591141858,54.1205050691405,210.61684930115374,54.12493673819283,210.61302766365995,54.12937248717332,210.60730880810766,54.13380370534796,210.60348532938764,54.13823915356723,210.59776422746577,54.142669920233985,210.59393890650455,54.14710506715909,210.58821555713058,54.1515353816876,210.58438839291276,54.155970226785556,210.5786627950037,54.160400088545224,210.5748337865134,54.16483463128288,210.5691059389859,54.16926403964302,210.56527508520674,54.17369827948705,210.55954498697704,54.17812723381677,210.5557122868921,54.18256117023369,210.55187876470978,54.18699498502615,210.54614538946808,54.1914233023582,210.5423100194758,54.19585681294509,210.5365743908322,54.20028467469559,210.53273717201182,54.204717880543086,210.52699928888114,54.20914528608063,210.52316022021412,54.21357818665478,210.5193203277578,54.218010964756886,210.51357916197796,54.22243773011438,210.50973741816816,54.22687020216391,210.50399399519787,54.231296509755914,210.50015039901467,54.235728675218546,210.49630597783556,54.240160717606024,210.49055926819042,54.244586382754264,210.48671299312917,54.24901811777511,210.48286589235244,54.25344972936268,210.48853913121752,54.256802018046784,210.49612606623649,54.259049155123556,210.5018011604221,54.26240082462167,210.49985692007206,54.2668390575651,210.4979122612164,54.271277258763064,210.49596718372436,54.27571542814695,210.49592479334436,54.28015976797115,210.49397908262716,54.28459790450262,210.49203295292082,54.289036009024166,210.49008640409457,54.293474081467174,210.49004336077766,54.29791841809047,210.4900003081691,54.30236275454476,210.49186158292747,54.30681335917426,210.49181871730337,54.311257696155884,210.49177584242295,54.3157020328082,210.49173295828322,54.32014636907769,210.49169006488123,54.32459070491088,210.49164716221392,54.32903504025427,210.4916042502783,54.33347937505436,210.4934671065825,54.33792995481412,210.49342438198937,54.34237428938913,210.4952878383708,54.346824840825974,210.4971516983429,54.35127536350036,210.4990159620327,54.35572585734449,210.4989738186904,54.360170191822235,210.50083868322594,54.364620656854115,210.50270395182017,54.36907109286194,210.50456962460055,54.37352149977782,210.5064357016945,54.37797187753396,210.5083021832295,54.38242222606247,210.51016906933307,54.38687254529549,210.51586297029831,54.390223575053696,210.51964943552161,54.39356853063492,210.52342663337546,54.398024452269155,210.52529586938107,54.40247453728905,210.5290745004824,54.40693028214398,210.53285395260147,54.411385908826574,210.53472481981868,54.41583584633144,210.5404153208317,54.42029680722657,210.54419723741248,54.424752078719905,210.54797997595026,54.42920723159266,210.55176353668006,54.433662265732785,210.55745836820134,54.43812242497372,210.56315443985739,54.44258231626325,210.56885175194063,54.44704193941513,210.57455030474367,54.451501294243094,210.57833881374418,54.45595549506661,210.5840396397319,54.46041440237492,210.58974170730934,54.464873040830014,210.59735692900497,54.46933602658921,210.6030616897958,54.47379403700244,210.61068002424236,54.47825618455277,210.6183073546634,54.481606766937375,210.62592880698782,54.48606795511388,210.63164598700328,54.489413531232096,210.63927711606286,54.49276279314786,210.6469029339425,54.49722266049741,210.65453676994883,54.500570960912185,210.66217185632834,54.50391878018082,210.66980819311703,54.507266118102216,210.67744578035078,54.51061297447526,210.68509014657346,54.512848262551366,210.69273002801933,54.51619415522663,210.70037115994876,54.519539565777464,210.70802335749858,54.520662320548354,210.71567127675337,54.52289567949012,210.72332003217113,54.52512855578432,210.73096962361632,54.527360949304914,210.7386200509533,54.52959285992583,210.74627131404623,54.53182428752103,210.75392341275912,54.53405523196453,210.76157634695585,54.53628569313036,210.76923336469798,54.53740458372563,210.77689080233873,54.538522990764484,210.78454865963906,54.53964091418613,210.79220693635983,54.540758353929796,210.79986321515648,54.542986397413856,210.8075225378307,54.544102869646,210.8151822792303,54.54521885799747,210.82284243911582,54.546334362407755,210.8305046028955,54.54633829535447,210.83816539111274,54.54745283175649,210.84582659707422,54.548566884056335,210.85348822054013,54.54968045219347,210.86115101505584,54.54968244879371,210.86881381056483,54.549683961186226,210.87647626906866,54.550796076788565,210.88413927377238,54.55079662078749,210.89180235698805,54.551907767801666,210.8994655698013,54.55190734332765,210.89946442436283,54.54746299323234,210.89180188700536,54.545241241370505,210.88414031112515,54.541907915757854,210.87647964548665,54.539685193780905,210.8688198119127,54.537461987138684,210.86116156375402,54.53412720594022,210.86882090268188,54.53523980754592,210.87647998302765,54.53857410441612,210.8841404407626,54.54079682675358,210.8918017303785,54.543019064323545,210.89946413804208,54.546351905214415,210.90712729904337,54.5485731724433,210.91479129155485,54.5507939545054,210.92245429437165,54.550792077365735,210.93011729598865,54.550789715998704,210.93777631678986,54.547453608685444,210.94160178345533,54.54300765305194,210.9473447679092,54.54078284357758,210.95501127358582,54.544112174157625,210.96267702329087,54.546329930737464,210.97033697189553,54.545213940867086,210.97799650175114,54.54409746709555,210.98565561261833,54.54298050948359,210.99331713791315,54.542974155070716,211.00097561786976,54.54185622987316,211.0086336780973,54.5407378209967,211.01629131835674,54.53961892850221,211.023948538409,54.53849955245047,211.03160533801523,54.53737969290237,211.03926171693655,54.53625934991887,211.04691767493424,54.535138523560875,211.05457321176962,54.53401721388943,211.06222832720417,54.532895420965545,211.0698879317309,54.532884229849664,211.07754241121404,54.531761470312354,211.08519114271823,54.529527143290316,211.09284457016534,54.52840341796789,211.10049757502003,54.52727920969882,211.10814420903804,54.525043435028586,211.115796160555,54.52391826144553,211.11385727579662,54.519477494415824,211.1061884175789,54.517269291457566,211.11385117394747,54.51836641026031,211.12152064790786,54.52057412747946,211.12918442749503,54.521670275491275,211.1368284372431,54.51943269248,211.14447160876074,54.5171946276723,211.15211394191385,54.51495608119469,211.15975543656842,54.51271705317354,211.1654747561819,54.509370844534885,211.1692719099587,54.504917725836556,211.17498160388678,54.50045998535624,211.17877689684798,54.49600656590137,211.1825713641699,54.4915530260903,211.18827774549115,54.487094655718245,211.19207035354992,54.48264081592815,211.19586213670632,54.47818685613844,211.20156520791437,54.47372785721617,211.2072670367575,54.469268589268424,211.21296762352864,54.4648090524816,211.22057845257038,54.460344028591244,211.22627634676851,54.45588386506847,211.23197299978162,54.45142343329538,211.23766841190263,54.4469627334583,211.2414519365588,54.442507342483246,211.24714507704996,54.43804619657484,211.2528369775195,54.433584783131465,211.2527975761596,54.42914045701309,211.2584876251432,54.42467877731477,211.26226683103016,54.4202227340169,211.26604521557005,54.41576657246686,211.26982277899774,54.41131029277665,211.27359952154802,54.406853895058305,211.2792842141848,54.40239123904457,211.28305910745667,54.397934546426804,211.28492482628138,54.39348399485422,211.28869828766867,54.3890271261431,211.29056299046502,54.38457648686446,211.2962427515641,54.38011303642784,211.30001375454097,54.37565581564753,211.30378393851618,54.37119847773463,211.30946040943957,54.36673440954008,211.31322874811715,54.362276778675955,211.31699626852426,54.357819031034516,211.32266945175024,54.353354346418705,211.32643512839968,54.34889630660036,211.33019998750902,54.344438150359835,211.33586988551446,54.33997285065893,211.3377272540422,54.33552148905934,211.3300808229387,54.33332737827252,211.32242349620705,54.33002170384729,211.3147788927084,54.32782662198692,211.3090289577353,54.32451337140466,211.31474439999405,54.32449338237459,211.32043653316447,54.322250965016,211.3223883824687,54.3266884677547,211.3300450861163,54.329994145876675,211.3357974681839,54.33330639205397,211.34340737490314,54.33216691475038,211.3471688586312,54.32770823463481,211.3528346013934,54.32324214574484,211.3565942448367,54.31878317520456,211.36035307238825,54.31432408904548,211.3660155355088,54.309857388094535,211.36977252431154,54.30539801228404,211.37543273280718,54.30093087446368,211.37918788390098,54.296471209531894,211.38294222032624,54.292011429578835,211.38479233021815,54.28755935751686,211.384738833091,54.283115079506075,211.38468534750533,54.27867080149177,211.38463187345735,54.27422652352743,211.38267581879643,54.26979003339952,211.38262257296333,54.26534575442105,211.3768759401239,54.2620357221918,211.36924108724423,54.259844061811876,211.36159429975828,54.256540844528566,211.35396126573298,54.254348215339164,211.34632903810578,54.252155102534886,211.33868549598785,54.24885042981004,211.33105508784703,54.24665634904654,211.3234254864899,54.24446178505789,211.31578519030114,54.24115565835066,211.30815740905953,54.23896012725341,211.30051934602363,54.2356530317136,211.292893385283,54.23345653409102,211.2909707751842,54.23124071011374,211.29860726164853,54.23454841164212,211.30623372482896,54.236744547755414,211.313860995148,54.23894020109866,211.32150072789787,54.242246450334996,211.3291298182468,54.2444411367084,211.33675971535033,54.24663533992186,211.34440269382944,54.249940135406476,211.35203441033397,54.25213337079945,211.35967962133824,54.25543719592686,211.36731315685537,54.25762946291652,211.37494749849844,54.25982124608908,211.37872536094469,54.25758374540011,211.37867255673814,54.253139464596266,211.37861976391528,54.248695184150485,211.37666556608983,54.24425859476262,211.37471178836176,54.23982197340687,211.37465943937508,54.235377691843965,211.37080549267452,54.2309486350663,211.37075357577763,54.22650435220969,211.36880127346433,54.222067634803466,211.36494919660356,54.21763838951281,211.36299793671307,54.213201577791565,211.35914730807332,54.20877214623223,211.35719708993085,54.204335240515086,211.35524729067035,54.19989830345788,211.3513987316344,54.19546862367119,211.34755099701002,54.191038820708684,211.34560286034144,54.18660172795687,211.34175657151243,54.182171739859776,211.33792318576008,54.17885270198804,211.33407843948268,54.17442246854277,211.3321325311961,54.16998515899513,211.32640318265024,54.166672707689834,211.3225608010936,54.162242106834725,211.3187192422239,54.157811383649836,211.31488995876106,54.154491612766925,211.3072669729784,54.15118493157561,211.29965624391463,54.14898884388942,211.29204631876135,54.14679227531137,211.28442656599813,54.14348414812767,211.27681845414972,54.141286617335915,211.2692111465916,54.13908860604155,211.26159462739517,54.13577903432209,211.25398913376054,54.13358006166338,211.24638444479473,54.13138060889151,211.2387711597079,54.12806959409344,211.23116828528134,54.125869180807,211.22355722497292,54.12255720459626,211.2159561654622,54.12035583137794,211.2083559112339,54.118153978703624,211.2007480858726,54.114840561869386,211.19314964717125,54.11263775011358,211.1855520141272,54.110434459291774,211.1779474242443,54.107119603292446,211.1703516073356,54.104915354239985,211.16275659645777,54.10271062651171,211.1551552425802,54.09939433280618,211.14758288427902,54.10052191157684,211.14382050637812,54.10497433375574,211.13816203020883,54.10943057229246,211.13627338559755,54.11054556346068,211.14003708385357,54.106093372517485,211.14569490112882,54.10163704840389,211.14756204844326,54.09718864769844,211.13996292038615,54.09387139625658,211.13237154335982,54.09166475435291,211.12478097296963,54.08945763443196,211.11718508172876,54.08613894774181,211.1095963290501,54.08393087187674,211.1020083833775,54.081722318385154,211.09441572946832,54.07840219790682,211.08682960210544,54.07619268932332,211.0792391747392,54.07287161378954,211.07165486605078,54.07066115069834,211.06407136496762,54.068450210640044,211.0564841757247,54.06512770377799,211.04890249390954,54.06291581006484,211.04132162006601,54.06070343977586,211.0337376694503,54.05737950304688,211.0261586154655,54.05516617995625,211.01858036981736,54.05295238068139,211.01099965832844,54.04962701554727,211.00342323312705,54.047412264324315,210.9958447491558,54.04408594781778,210.98827014475913,54.04187024523185,210.98069881026586,54.04076515639275,210.9731301366279,54.04077068154652,210.9655614600509,54.04077573148387,210.95799278079897,54.04078030620427) # color=green width=2
