# Region file format: DS9 version 4.0
# Filename: product/P0921180101EPX000OEXPMP8000.FIT 
# global color=green font="helvetica 12 bold" select=1 highlite=1 edit=1 move=1 delete=1 include=1 fixed=0 source
linear
polygon(210.98259449484934,54.04913542266817,210.97502428728228,54.04914011764173,210.96745407723697,54.04914433725139,210.95988386497766,54.04914808149675,210.95231365076867,54.04915135037752,210.94474452646307,54.050265236294756,210.93717410612058,54.05026755454045,210.93907046910286,54.05471139118636,210.9466462723075,54.05915332768351,210.9523304861912,54.063595563523975,210.95990933583033,54.06803667133869,210.9655961911272,54.07247828636558,210.9637025716635,54.072479238100335,210.95612250248465,54.06803836637952,210.95043727231544,54.06359630686415,210.94286025016683,54.059154606071374,210.93717766084416,54.05471192626814,210.92960368462124,54.05026939740132,210.92203277972203,54.04915967224935,210.91446255972923,54.049160564303605,210.90689241582538,54.05027207367354,210.8993218657606,54.05138310784802,210.89175123940376,54.05138257376129,210.88417954807502,54.05360375037356,210.8766055732385,54.058046639384145,210.86903091309514,54.061377960661964,210.86145389230424,54.06581990207021,210.85387659257736,54.06915027427967,210.8462965251393,54.073591267064906,210.8387218442996,54.073587401984156,210.83114520961848,54.07469415654988,210.82356817083746,54.07580043508534,210.81599309109947,54.07579514219407,210.80841544824204,54.07690046857371,210.80084017163796,54.0768942237663,210.7932589526204,54.079109692714816,210.78568010032214,54.08021359035876,210.77809746509195,54.08242810636778,210.77051760413246,54.08353105104467,210.76293355339575,54.0857446137116,210.7553526846113,54.086846605104704,210.74778819162904,54.08350374466412,210.7421232298987,54.07905187717819,210.73454303827958,54.08015256010265,210.7269529398632,54.0834749507503,210.71935666776093,54.08790795643054,210.71176393264105,54.09122939214575,210.70416998117713,54.094550350095496,210.69656924272232,54.09898192237164,210.68897265406483,54.10230192406618,210.68137484892227,54.10562144737581,210.67377582726968,54.1089404921031,210.66616920000905,54.11337014977709,210.65856754056102,54.11668823650437,210.65096466446386,54.12000584402994,210.64335356794453,54.12443406319143,210.6357480535685,54.12775071139415,210.6281339083776,54.1321779702429,210.6205257553548,54.13549365822187,210.61290856081996,54.13991995573726,210.60529776878386,54.14323468259162,210.5976857597363,54.146548928780916,210.59006409281912,54.150973782581765,210.58244944428148,54.15428706632352,210.5748247264265,54.158710956270546,210.56720743803535,54.16202327666378,210.55957966857434,54.1664462017361,210.55195973996754,54.16975755787984,210.5443385939948,54.173068431895196,210.53670634905018,54.17748990804969,210.54046399376548,54.18194574074784,210.5461212457951,54.18640710244172,210.54798171946717,54.19085706261402,210.5441449798173,54.19529014950216,210.54030741721846,54.199723114247135,210.53456942236647,54.20415016018,210.53073001025598,54.20858281958563,210.52688977447886,54.21301535649032,210.5211484977229,54.21744176212933,210.5192068310025,54.221880062345896,210.51726474679052,54.22631833139741,210.5153222449568,54.2307565692154,210.51337932537106,54.23519477573125,210.5114359879031,54.23963295087637,210.50759079258256,54.244064870573716,210.50564641488745,54.248502951826374,210.50370161887943,54.25294100149272,210.5017564044279,54.257379019504114,210.49981077140228,54.261817005792,210.49786471967195,54.266254960287775,210.49782091396554,54.27069929275198,210.49587422874174,54.27513721446252,210.4958301988803,54.279581546073175,210.4957861595188,54.2840258777013,210.49383862559668,54.28846376529648,210.49379436184054,54.292908095744465,210.49184619356447,54.2973459499628,210.49180170522433,54.301790279011186,210.4898529022329,54.30622809961302,210.4898081891193,54.31067242704232,210.4954776177283,54.31513619509424,210.49543350225557,54.319580524936505,210.49729450754054,54.32403127674325,210.4972505787498,54.328475606655076,210.49720664046956,54.332919935996124,210.4990684412376,54.337370660270096,210.49902468984342,54.3418149893556,210.50088709022546,54.346265685325946,210.5008435258832,54.35071001393763,210.5027065262202,54.355160681366996,210.5045699301331,54.35961131993029,210.5064337377491,54.36406192955966,210.5082979491954,54.36851251018729,210.5101625645994,54.372963061745374,210.5120275840884,54.37741358416602,210.51580082501548,54.381870212746,210.51766686024035,54.386320647613125,210.51953329997363,54.39077105312955,210.52140014434286,54.39522142922744,210.52517604052625,54.39967776475063,210.52704390189382,54.40412805268877,210.5308212309328,54.408584211555144,210.5345993808272,54.41304025232608,210.5402878317567,54.41750192681187,210.544067832362,54.421957671759266,210.54784865455605,54.426413298255426,210.55163029857377,54.43086880618829,210.55541276465019,54.43532419544578,210.56110657549846,54.43978489101968,210.5648908948291,54.4442399831901,210.57058697706864,54.44870023246446,210.57628430003172,54.45316021355266,210.58198286401108,54.457619926268336,210.58959423778677,54.46208434751308,210.59529549390277,54.466543433232495,210.60100620239578,54.46989116630567,210.60670978895484,54.47434971390903,210.61432697219965,54.47881257997119,210.62004095018338,54.482159414987116,210.62575586305297,54.48550598026903,210.63338453796547,54.48885656321225,210.64100733290806,54.49331775036202,210.64672552023578,54.496663325547416,210.65435799500207,54.50001258744464,210.6619917204013,54.50336136842939,210.6696266964698,54.506709668300516,210.67726907332664,54.50894640180446,210.68490634420655,54.512293738785566,210.69254486579575,54.515640594076885,210.7001901678025,54.51787588215018,210.7078363066445,54.52011068799112,210.71548328218685,54.522345011473504,210.7231261861093,54.525689938208906,210.7307750419003,54.52792329668655,210.73842473403127,54.53015617240417,210.7460795486543,54.5312774792948,210.7537307056682,54.53350938909256,210.76138269856938,54.53574081577517,210.7690391910038,54.53686067308819,210.7747879747821,54.53575584741884,210.76905750693118,54.531305239596755,210.76141366270204,54.526852121308366,210.75568589629327,54.52240087718429,210.74804517070825,54.51794691213754,210.74423410091808,54.51349757109613,210.74996355521822,54.51683827187759,210.7576042830438,54.52129211672037,210.76333210321044,54.525743270961286,210.7709759494829,54.530196269032515,210.7767064709468,54.53464678695953,210.78435343682438,54.539098937249335,210.79201118973268,54.54021734397573,210.7996693623209,54.54133526705164,210.80733057924584,54.54134161956461,210.81500146615178,54.536903137720195,210.82266185808206,54.53690852123968,210.8283989427971,54.541356593057635,210.83605463558771,54.54469439271695,210.8437164903477,54.54469844645436,210.8513769177789,54.54581310344637,210.85903898455217,54.54581618907371,210.86670105293504,54.545818790562784,210.87436231704075,54.54693199540712,210.88202459580458,54.54693362868565,210.88968648569,54.54804586521456,210.8973489737501,54.54804653020288,210.90501146204963,54.54804671101258,210.91267395031448,54.548046407643675,210.92033688060994,54.54915670729591,210.92799957598967,54.54915543551791,210.93566312891147,54.550264766417634,210.94332603032072,54.550262526151876,210.95098893032463,54.550259801668545,210.95865331118128,54.551367679308704,210.96631641558062,54.551363986240005,210.97397951775199,54.551359808934755,210.98164051080383,54.550244061564555,210.98930339966887,54.5502389159977,210.99121202223307,54.54690429605588,210.98545648454038,54.54246394364354,210.99312516965057,54.545791817607636,210.99888200642872,54.550231803111096,211.00654767075275,54.55133665313314,211.01420776599505,54.55021884879473,211.02187064000367,54.55021164531571,211.02953010319436,54.549092873232574,211.03718914606247,54.54797361740468,211.0448439463596,54.5457427935912,211.05249388121908,54.542400401790175,211.0601383287373,54.53794644155813,211.06778555448977,54.53460308273958,211.07542687900488,54.530148155438766,211.08307139607132,54.52680383051827,211.09070959832172,54.5223479371839,211.09835140712437,54.51900264707698,211.1059919653568,54.51565687472897,211.113636957605,54.51342170614282,211.12128111302997,54.5111860554768,211.1289183329961,54.50783883749039,211.13655430239822,54.50449113801292,211.14418902127227,54.501142957245456,211.1518224896544,54.49779429538913,211.1594547075808,54.494445152645056,211.16708567508803,54.49109552921432,211.1708826072454,54.48664282520505,211.1785111837636,54.48329248171595,211.18422610085904,54.47994609552493,211.19184453626812,54.47548382769361,211.19946131015536,54.471021080612566,211.20518095880027,54.46878479012835,211.21279503105012,54.464321204826696,211.2204074424428,54.45985714104174,211.22610693823862,54.45539769593396,211.23180519285987,54.450937982316304,211.23941304322227,54.446472724294,211.24702852020056,54.443118071463246,211.2546332562669,54.438651858513154,211.26224602956307,54.43529625032093,211.26984765208545,54.43082908347701,211.27745772213643,54.42747252083829,211.2850665432703,54.424115480995575,211.29266359911185,54.41964688496404,211.30026971758497,54.41628889201898,211.30213604521524,54.41183831412951,211.29637657703228,54.40852377388228,211.29060757891267,54.40409787647173,211.2829311742228,54.39967769000198,211.2828901874819,54.395233360444244,211.28865711280307,54.39965963185607,211.29437248647358,54.39853022209695,211.29441471880887,54.402974544639655,211.3001839675991,54.40740026056127,211.30595445708488,54.4118256979146,211.31355803188592,54.40846687241524,211.32116035814357,54.40510757074132,211.32874994831178,54.40063671723251,211.33634957301072,54.39727646465012,211.34393605329592,54.39280466227843,211.35153297687904,54.38944345970226,211.35912865225538,54.38608178201095,211.36671057095134,54.38160855784571,211.37429083374744,54.37713486084794,211.37614735609483,54.37268315104746,211.3780034760378,54.36823141250795,211.3798591937033,54.363779645297186,211.38171450921814,54.359327849482916,211.3835694227092,54.35487602513288,211.37970494709026,54.35044679391774,211.37393517493825,54.34602485597186,211.3662607144283,54.34160993751437,211.3604936191891,54.33718735178162,211.3528222396433,54.332771573422384,211.34705782018779,54.32834834077085,211.33938952051474,54.3239317035141,211.33362777571355,54.31950782481164,211.32596255482133,54.31509032966137,211.32020348354504,54.31066580577562,211.31254134034128,54.30624745373564,211.32018102170903,54.30844364264401,211.3259397797101,54.312868168335235,211.33360458436383,54.31728566589264,211.33936601560114,54.32170954650661,211.3470338987037,54.326126186293905,211.3527980043066,54.33054942096305,211.3604689669497,54.3349652019763,211.36623574804722,54.339387789832784,211.37390979132212,54.343802711067816,211.37967924904333,54.348224651243626,211.38537192313234,54.34597989046283,211.38722583828772,54.341528009696624,211.38907935188504,54.337076100655935,211.38902696278254,54.3326318190817,211.3908798804922,54.32817988245578,211.39273239698252,54.3237279177489,211.3926796304502,54.31928363695133,211.3926268753113,54.31483935568293,211.39257413156218,54.31039507399716,211.39252139919913,54.30595079194754,211.39246867821848,54.301506509587526,211.39241596861655,54.29706222697064,211.39236327038967,54.29261794415035,211.39231058353408,54.28817366118015,211.39225790804625,54.28372937811355,211.39030221006016,54.279292765618465,211.3902497625359,54.27484848126429,211.39019732632394,54.27040419697434,211.39014490142074,54.26595991280214,211.38819027358062,54.26152326445639,211.38813807634656,54.257078979430524,211.38618408513864,54.25264229790959,211.38423051406778,54.24820558430704,211.38227736300306,54.243768838691565,211.38032463181364,54.23933206113181,211.37647132951125,54.23490270039584,211.37071806414224,54.23048057346226,211.36306544054514,54.22606540772507,211.35731483711888,54.22164263858426,211.34966527730722,54.217226619434314,211.34391733470383,54.21280320895192,211.336270837595,54.20838633739055,211.33052555469445,54.203962286432,211.32288211920545,54.199544563460314,211.31713949488747,54.195119872890885,211.30949911993486,54.19070129950977,211.3037591530791,54.18627597019453,211.29612183757894,54.1818565474047,211.29038452706482,54.17743058020849,211.28275026993273,54.17301030901045,211.27701561463954,54.16858370479794,211.26938441479075,54.164162586192,211.2636524135976,54.15973534582766,211.25602426994686,54.155313380813915,211.24843478936967,54.155335274182086,211.24087246590966,54.15868994996417,211.23331776522727,54.16315524237832,211.23519768858645,54.16092787569451,211.2427517779188,54.15646246727429,211.25031354019393,54.153107675176194,211.2464821739917,54.14867416026736,211.24075476434356,54.14424583129641,211.233131916176,54.139822417499175,211.2274071575441,54.13539345473683,211.21978736257978,54.13096919726291,211.21406525384265,54.12653960157289,211.20644851099468,54.12211450142164,211.20072905103083,54.11768427366741,211.19311535921193,54.113258331837976,211.1873985468996,54.10882747288288,211.17978790502198,54.104400690374234,211.17407373923936,54.099969201081336,211.16646614621487,54.09554157889221,211.1607546258399,54.09110946012444,211.15315008058,54.08668099925338,211.14744120449055,54.082248251873395,211.13983970590613,54.07781895331877,211.13413347297993,54.07338557818908,211.12653501998162,54.06895544294898,211.1189497212434,54.06674700459292,211.1113707912772,54.06564917677153,211.10378690188594,54.06343978428744,211.0962089744092,54.062341003093636,211.0886264950745,54.0601306568822,211.08104957092513,54.05903092263119,211.0734730470757,54.05793071210821,211.06589692375948,54.056830025371596,211.05832120120954,54.05572886247979,211.050745879659,54.05462722349119,211.04317095934076,54.053525108464264,211.03559996895405,54.05353360772298,211.02802564856387,54.05243054095026,211.02045485231042,54.05243808902454,211.01288113285415,54.051334070659884,211.00531053178193,54.0513406676249,210.99773992717363,54.05134678918898,210.99016700942173,54.05024134375384,210.98259449484934,54.04913542266817) # color=green width=2
polygon(210.6792080253336,54.155617192864774,210.6792080253336,54.155617192864774) # color=green width=2
