# Region file format: DS9 version 4.0
# Filename: product/P0921180301EPX000OEXPMP8000.FIT 
# global color=green font="helvetica 12 bold" select=1 highlite=1 edit=1 move=1 delete=1 include=1 fixed=0 source
linear
polygon(210.91208300750645,54.05666028013842,210.90451035174877,54.05888145792829,210.89693762014258,54.059991066554105,210.88936448319527,54.061100199651875,210.88179094113895,54.06220885716244,210.87421699420577,54.063317039026785,210.866642642628,54.064424745185846,210.85906613444314,54.06664306991413,210.85149077097907,54.067749824471285,210.84391500354604,54.06885610312595,210.83633883237667,54.06996190581924,210.82876225770357,54.07106723249235,210.82118251072933,54.073283177303765,210.8136078987775,54.07327645754276,210.8060269391125,54.07549144976571,210.7984485492971,54.0765948716127,210.7908697571211,54.07769781712551,210.78518446519058,54.07880248702486,210.77760491856432,54.07990459875829,210.77002082745082,54.082117327215194,210.76244027403746,54.08321848563397,210.75485931934512,54.08431916741501,210.74727796360744,54.08541937249993,210.73969620705805,54.08651910083026,210.73210888881954,54.08872944423853,210.72452612765883,54.08982821852666,210.71694296636662,54.09092651586493,210.70935940517694,54.092024336195045,210.7017694680071,54.09423276993848,210.6941849039395,54.095329635637356,210.6865999406557,54.096426024133194,210.67901457839005,54.09752193536789,210.67142202542715,54.099728458018234,210.66383566202018,54.100823414033805,210.6581366915837,54.103033177668586,210.6618984824536,54.10748583751769,210.66376568304125,54.111934303555984,210.66373768092294,54.11637866301558,210.6561336519743,54.11969531325441,210.64853581751774,54.121900394460866,210.64092956085213,54.12521608562685,210.63332208787745,54.128531296806905,210.62571339857027,54.131846027803746,210.61809526185587,54.13627136622545,210.61047549786673,54.140696223236624,210.6047510153232,54.14512563715005,210.59902530797794,54.1495547794585,210.59140106288095,54.153978430785045,210.58567270323894,54.15840693898729,210.57994311795395,54.16283517499846,210.5742123067472,54.167263138632805,210.5665821499914,54.17168521913892,210.5627470054533,54.17611824802829,210.55891103869706,54.180551155082135,210.55317552290202,54.18497811786623,210.54933770829115,54.18941072023414,210.54549907074562,54.19384320040893,210.5416596100352,54.19827555827787,210.53591978911754,54.20270169870535,210.5320784785616,54.20713375086436,210.52823634412337,54.21156568035968,210.52819367717777,54.21601001191113,210.52815100104027,54.22045434425653,210.52430720534224,54.224886148408395,210.52236334267954,54.22932416977954,210.51851810036771,54.233755788603666,210.51657319761767,54.23819371626202,210.51462787656374,54.2426316124302,210.5126821370755,54.24706947703963,210.51073597902234,54.25150731002168,210.50878940227372,54.25594511130777,210.5068424066991,54.26038288082929,210.5048949921676,54.26482061851763,210.50484975289444,54.26926494344951,210.50290170432217,54.27370264830295,210.5028562402896,54.27814697239834,210.50090755731546,54.28258464417722,210.500861868334,54.28702896721666,210.50081616949277,54.291473290192144,210.4988666364768,54.295910927445306,210.49691668361478,54.300348532356,210.49877477850194,54.30479957040649,210.4987288346406,54.309243891496685,210.49868288085898,54.313688212255265,210.49863691715393,54.31813253262878,210.4985909435222,54.32257685256373,210.50045022342314,54.32702786527364,210.50040443569907,54.33147218526619,210.50035863808316,54.33591650465986,210.5022187124184,54.34036748992686,210.50217310091338,54.34481180905309,210.50403377418564,54.34926276609017,210.50589485051592,54.35371369444462,210.50584962150694,54.35815801330054,210.50771129732797,54.36260891306186,210.50957337654737,54.367059783946864,210.51143585929236,54.37151062588769,210.5132987456901,54.37596143881656,210.51516203586797,54.380412222665626,210.5189336811298,54.38486938411617,210.52079798650203,54.389320080568275,210.52457106269054,54.39377706631214,210.52834495875322,54.3982339344867,210.53021089185626,54.402684484715245,210.5339862200999,54.407141176604846,210.53776236889257,54.41159775060896,210.54153933846905,54.41605420661557,210.54340751358075,54.42050455100739,210.54909574091258,54.424966764188326,210.55287517424946,54.42942286553041,210.55856567088122,54.43388463395137,210.56234695637306,54.43834043896286,210.56803972343064,54.44280176199303,210.57182286212537,54.44725727014182,210.57751790073513,54.45171814715015,210.5832141802097,54.45617875612371,210.588911700842,54.46063909687621,210.59461046292506,54.46509916922128,210.6022223820569,54.46956407212266,210.6079238372756,54.47402351739681,210.61553886954766,54.47848758321879,210.62315556384303,54.48295117014786,210.6307818783523,54.486303195313184,210.63081370570177,54.48185886347078,210.6289332378704,54.477409881336705,210.62705317830324,54.47296086820486,210.62517352687144,54.46851182414324,210.62138261944182,54.46405798293776,210.6195039916849,54.45960884783865,210.62142365390122,54.458502558309235,210.6252140523353,54.46295640029097,210.6270934535503,54.46740544617572,210.6289732627909,54.471854461203435,210.630853480186,54.47630344530614,210.63464655091786,54.48075698651305,210.63652779298536,54.48520587912228,210.63840944363534,54.489654740592705,210.64603071410113,54.494116888906014,210.65366098728902,54.49746747404013,210.6613139094758,54.497484327511515,210.66898068954092,54.49527852814754,210.67471331455158,54.49640157304767,210.67659962867563,54.50084983977911,210.68039995282763,54.50530194209328,210.6861213746021,54.50864661619185,210.69376390211556,54.51088359153901,210.70140726697855,54.51312008508091,210.7090456284945,54.516467181735045,210.71669087471213,54.51870271148207,210.72433695792097,54.52093775902204,210.73198387798612,54.523172324228725,210.73962662244878,54.526517492477446,210.7472802281449,54.52764000713756,210.7549296579679,54.52987312458741,210.76257992410606,54.53210575919938,210.77023102642366,54.5343379108474,210.7759638605389,54.53767833615253,210.7836167370512,54.539909642296415,210.7912704494373,54.542140465095144,210.79892840257844,54.54325971884187,210.80658357869243,54.5454895746512,210.81423959022564,54.54771894676055,210.82189921893868,54.548836749568984,210.8219103450178,54.54439240568336,210.8219186879918,54.541059145707955,210.82574123966688,54.54439558229723,210.82764618520676,54.54884146987591,210.83338574339675,54.552179174773734,210.84104673236524,54.55329576785393,210.84870608590367,54.5555229621625,210.85636812054443,54.556638587078346,210.86403057369827,54.5577537278099,210.8716948755391,54.55775729914423,210.87936040150532,54.55664930064317,210.88702551283532,54.55554081737318,210.89469101520496,54.55332076310381,210.90235508844566,54.55221131020654,210.91001874635083,54.55110137274104,210.91768198868002,54.54999095076739,210.9253447888668,54.54776895690217,210.93300699132976,54.54665756590667,210.9406687775186,54.54554569060418,210.9483301471932,54.54443333105494,210.95599110011355,54.543320487319306,210.9636527021061,54.543318247625365,210.97131430269397,54.5433155238374,210.97897441963866,54.54220122803025,210.98663411882458,54.54108644823704,210.99429340001217,54.53997118451825,211.0019522629619,54.53885543693441,211.00961070743435,54.53773920554611,211.0172687331902,54.53662249041395,211.02492633999017,54.53550529159859,211.02874790530677,54.53216879040514,211.0364043640014,54.53105086640853,211.04406040319964,54.529932458931974,211.0517160226625,54.52881356803627,211.05936755951927,54.52658310578204,211.0670221312172,54.52546324840623,211.07467220494286,54.5232318200051,211.0823257280243,54.52211099647592,211.08997433790466,54.51987860234126,211.09762211199194,54.51764572553639,211.10526905015072,54.51541236618746,211.11292026605338,54.514289611635256,211.1205657390213,54.512055287424566,211.12821590381583,54.51093156774282,211.13585991088183,54.50869627908442,211.14350902372047,54.507571594600954,211.15115771388778,54.506446427635936,211.15880598114632,54.50532077825068,211.1664472611231,54.50308356165675,211.17409447467531,54.50195694808443,211.18174126462972,54.50082985229654,211.1893876307492,54.4997022743546,211.19702618049595,54.497463131308635,211.2027507693521,54.49522791688395,211.1969892250045,54.49190771384831,211.19888731102597,54.4896812275358,211.19694489163624,54.48524120771967,211.19500289275717,54.48080115387272,211.19306131425674,54.47636106606357,211.19690057268477,54.47857469611469,211.2045575499958,54.47966833411511,211.20076271592774,54.48412145795861,211.20270549537148,54.488561416760675,211.20273567638878,54.49300575080589,211.20849013602043,54.495214597156306,211.2161347062992,54.494085333034654,211.22377885171164,54.49295558706678,211.23142257202116,54.49182535931439,211.23905733677543,54.4895835698843,211.2466999992421,54.488452379414404,211.25434223591967,54.48732070736575,211.26198404657177,54.48618855380015,211.26961607368568,54.48394484146098,211.277256824756,54.48281172579642,211.28489714911586,54.48167812882113,211.29252706939715,54.479432975438804,211.2982337616545,54.476082183315654,211.3020274706806,54.47273709784967,211.3077220645317,54.4682747838083,211.3115142746441,54.464929400762514,211.3172067481127,54.460466640506134,211.3152529245032,54.45602852433476,211.31329952329614,54.45159037389639,211.31134654435917,54.44715218925969,211.30748333976905,54.442720029561585,211.30553141101606,54.43828174560702,211.30357990409618,54.433843427670105,211.30162881887728,54.42940507581951,211.29776833052557,54.42497259462092,211.29581829419752,54.42053414406636,211.29386867913414,54.416095659813976,211.2919194852034,54.411657141932466,211.28806171006212,54.40722434061472,211.2861135637312,54.402785724642946,211.28607442888844,54.39834138719929,211.2880223602124,54.40278000555648,211.2918797136731,54.407212810263786,211.29382869236858,54.411651330653164,211.29577809210477,54.416089817472056,211.29772791301363,54.42052827065184,211.30158797909465,54.42496075550497,211.30353884866565,54.42939911010323,211.30549013984546,54.4338374308465,211.30744185276615,54.438275717666095,211.31130463449458,54.442707881283795,211.3132573973701,54.44714606890798,211.31521058242342,54.45158422239256,211.31907545419625,54.45601612884693,211.32668781394852,54.452657754340905,211.33237692723205,54.44819428121811,211.33615411388615,54.44373705253701,211.33993047884854,54.43927970558833,211.3456162911259,54.4348156106331,211.3493908047254,54.430357968315185,211.35316449736794,54.42590020808545,211.3569373692886,54.4214423300558,211.35879998651845,54.416991200751674,211.36257142626948,54.41253314654939,211.36634204597445,54.40807497486334,211.37011184586808,54.403616685805396,211.3719722250866,54.39916535205621,211.3738322008517,54.394713989107025,211.37759995954318,54.39025546660566,211.37945892142196,54.385804016548825,211.3832252508276,54.38134531920043,211.38508319948915,54.37689378235091,211.38694074541536,54.37244221665977,211.38689073990253,54.367997927130304,211.38874768789935,54.36354633281677,211.39060423350082,54.35909470985521,211.39246037683378,54.3546430583134,211.39240979654866,54.35019876852907,211.39045311063316,54.345761836943055,211.3865909337182,54.34133216991367,211.3846352959347,54.33689514075533,211.38268007955924,54.332458078532255,211.3807252844601,54.32802098331314,211.3768658159197,54.32359099811911,211.37491206766651,54.31915380594174,211.3729587402555,54.314716580984346,211.3710058335553,54.31027932331555,211.36714907038044,54.305849021338254,211.365197209242,54.301411667325105,211.36324576838086,54.296974280816514,211.35939108313156,54.29254372688792,211.3574406868518,54.28810624450145,211.3554907104164,54.2836687298354,211.35354115369435,54.27923118295839,211.3496891685223,54.27480031467878,211.34774065510098,54.27036267253744,211.34579256096075,54.26592499840097,211.34384488597075,54.26148729233801,211.33999559787873,54.257056111087344,211.33804896491077,54.252618310373364,211.33610275066155,54.24818047794865,211.32848535601926,54.2470950743494,211.32088972688848,54.24823135799274,211.3132936744239,54.24936716488523,211.30758861194272,54.249385392750696,211.3151848284443,54.24824994422808,211.32278062180316,54.247114018923604,211.33036505184867,54.24486653418334,211.33222256600934,54.24041580054734,211.32837648950516,54.23598424563048,211.326432099203,54.23154625621226,211.32448812695054,54.22710823542145,211.32254457261746,54.22267018332666,211.3187011866435,54.218238318459704,211.31675867153746,54.21380017305648,211.31481657392064,54.20936199656486,211.3109752545986,54.2049298849491,211.30903419523577,54.200491615614744,211.3070935529328,54.196053315407575,211.30515332755968,54.19161498439612,211.3013146935166,54.18718256525802,211.2993755051265,54.18274414201637,211.29743673323742,54.17830568818596,211.29549837771967,54.1738672038353,211.29166242597935,54.16943447855232,211.28972510617558,54.16499590258381,211.28778820231503,54.16055729631049,211.28585171426815,54.15611865980086,211.28201844185872,54.15168562974994,211.2800829882587,54.14724690223464,211.27814795004497,54.14280814469837,211.2743167357763,54.13837487184409,211.26859920281117,54.1350579857308,211.26097724886606,54.130635049050916,211.25526185077635,54.127317530301525,211.24954736745676,54.1239997406244,211.241938010216,54.12068668479017,211.2343298682479,54.11737314855801,211.2286184300402,54.114054366942696,211.22102053588452,54.11185107633364,211.21341568457876,54.10853622011484,211.20581204847545,54.10522088423084,211.1982169809601,54.103016156158915,211.19251040924001,54.09969566469358,211.18491705900325,54.097490098606606,211.17732451510585,54.09528405420306,211.169732777686,54.093077531605424,211.16402985329626,54.0897556927994,211.15643983368147,54.0875483331839,211.14885062085878,54.08534049574583,211.14126221496582,54.083132180607805,211.1336802337297,54.0820344777233,211.12609323819225,54.07982520777669,211.11851226011976,54.07872655088473,211.11093668893292,54.07873850817396,211.11285081547658,54.08317992811046,211.11665965195425,54.08761831456241,211.11857480289993,54.09205964756822,211.12049036477902,54.096500952120955,211.12240633771955,54.10094222815234,211.1262178329332,54.10538031959001,211.12242229174777,54.104275508205205,211.12050616275582,54.09983423090225,211.11859044489188,54.09539292503405,211.11478068617288,54.09095459621595,211.1128659931717,54.08651320317925,211.11095171087536,54.08207178179198,211.10714399575212,54.077633217229206,211.10334189887914,54.07430562504404,211.0957625288828,54.073205537585665,211.08818355965366,54.07210497362504,211.08060079944227,54.069892841659204,211.07302283589118,54.06879132463792,211.0654490589032,54.06880042331404,211.05787885908614,54.06992013880468,211.05030824834554,54.07103937941862,211.0427404030849,54.073269238742334,211.0351687680964,54.07438752987602,211.02759672285524,54.075505345932896,211.02002426759253,54.07662268685306,211.01245140253957,54.07773955257672,211.00487380707614,54.07663375178163,210.99729661549947,54.075527474882705,210.9897198280423,54.07442072193885,210.98214344493726,54.07331349300897,210.97456746641694,54.072205788152054,210.96699189271382,54.07109760742713,210.9594176643339,54.07110004639108,210.95184269768913,54.06999091402682,210.944268670358,54.06999240142978,210.93669464233164,54.06999341310197,210.9291206138747,54.06999394904331,210.92154666114263,54.06888291370953,210.91965358484623,54.065549568779936,210.91586788995502,54.06110498252181,210.91208300750645,54.05666028013842) # color=green width=2
polygon(210.78896136818392,54.08214008136534,210.78896136818392,54.08214008136534) # color=green width=2
polygon(210.7908446720576,54.0854754768095,210.7908446720576,54.0854754768095) # color=green width=2
polygon(210.79272827955808,54.08881084436081,210.79272827955808,54.08881084436081) # color=green width=2
polygon(210.80591567590648,54.11437983117546,210.80591567590648,54.11437983117546) # color=green width=2
